flaticon/business/point-of-service.svg

<svg xmlns="http://www.w3.org/2000/svg" width="32" height="32" viewBox="0 0 24 24">
    <path d="M 21.519531 3.199219 L 17.199219 3.199219 L 17.199219 2.292969 C 17.199219 1.027344 16.171875 0 14.90625 0 L 3.492188 0 C 2.230469 0 1.199219 1.027344 1.199219 2.292969 L 1.199219 21.707031 C 1.199219 22.972656 2.230469 24 3.492188 24 L 14.90625 24 C 16.171875 24 17.199219 22.972656 17.199219 21.707031 L 17.199219 16.800781 L 21.519531 16.800781 C 22.226562 16.800781 22.800781 16.226562 22.800781 15.519531 L 22.800781 4.480469 C 22.800781 3.773438 22.226562 3.199219 21.519531 3.199219 Z M 16.398438 21.707031 C 16.398438 22.53125 15.730469 23.199219 14.90625 23.199219 L 3.492188 23.199219 C 2.671875 23.199219 2 22.53125 2 21.707031 L 2 2.292969 C 2 1.46875 2.671875 0.800781 3.492188 0.800781 L 14.90625 0.800781 C 15.730469 0.800781 16.398438 1.46875 16.398438 2.292969 Z M 17.199219 16 L 17.199219 4 L 18 4 L 18 16 Z M 18.800781 16 L 18.800781 4 L 19.601562 4 L 19.601562 16 Z M 22 15.519531 C 22 15.785156 21.785156 16 21.519531 16 L 20.398438 16 L 20.398438 4 L 21.519531 4 C 21.785156 4 22 4.214844 22 4.480469 Z M 22 15.519531"/>
    <path d="M21.601562 5.601562C21.601562 5.820312 21.421875 6 21.199219 6 20.980469 6 20.800781 5.820312 20.800781 5.601562 20.800781 5.378906 20.980469 5.199219 21.199219 5.199219 21.421875 5.199219 21.601562 5.378906 21.601562 5.601562zM21.601562 7.601562C21.601562 7.820312 21.421875 8 21.199219 8 20.980469 8 20.800781 7.820312 20.800781 7.601562 20.800781 7.378906 20.980469 7.199219 21.199219 7.199219 21.421875 7.199219 21.601562 7.378906 21.601562 7.601562zM3.199219 8.800781L15.199219 8.800781 15.199219 3.601562 3.199219 3.601562zM4 4.398438L14.398438 4.398438 14.398438 8 4 8zM5.601562 2.800781C5.820312 2.800781 6 2.621094 6 2.398438 6 2.179688 5.820312 2 5.601562 2L3.199219 2C2.980469 2 2.800781 2.179688 2.800781 2.398438 2.800781 2.621094 2.980469 2.800781 3.199219 2.800781zM3.601562 12.398438L6.800781 12.398438 6.800781 9.601562 3.601562 9.601562zM4.398438 10.398438L6 10.398438 6 11.601562 4.398438 11.601562zM7.601562 12.398438L10.800781 12.398438 10.800781 9.601562 7.601562 9.601562zM8.398438 10.398438L10 10.398438 10 11.601562 8.398438 11.601562zM11.601562 12.398438L14.800781 12.398438 14.800781 9.601562 11.601562 9.601562zM12.398438 10.398438L14 10.398438 14 11.601562 12.398438 11.601562zM3.601562 15.601562L6.800781 15.601562 6.800781 12.800781 3.601562 12.800781zM4.398438 13.601562L6 13.601562 6 14.800781 4.398438 14.800781zM7.601562 15.601562L10.800781 15.601562 10.800781 12.800781 7.601562 12.800781zM8.398438 13.601562L10 13.601562 10 14.800781 8.398438 14.800781zM11.601562 15.601562L14.800781 15.601562 14.800781 12.800781 11.601562 12.800781zM12.398438 13.601562L14 13.601562 14 14.800781 12.398438 14.800781zM3.601562 18.800781L6.800781 18.800781 6.800781 16 3.601562 16zM4.398438 16.800781L6 16.800781 6 18 4.398438 18zM7.601562 18.800781L10.800781 18.800781 10.800781 16 7.601562 16zM8.398438 16.800781L10 16.800781 10 18 8.398438 18zM3.601562 22.398438L6.800781 22.398438 6.800781 19.601562 3.601562 19.601562zM4.398438 20.398438L6 20.398438 6 21.601562 4.398438 21.601562zM7.601562 22.398438L10.800781 22.398438 10.800781 19.601562 7.601562 19.601562zM8.398438 20.398438L10 20.398438 10 21.601562 8.398438 21.601562zM11.601562 22.398438L14.800781 22.398438 14.800781 16 11.601562 16zM12.398438 16.800781L14 16.800781 14 21.601562 12.398438 21.601562zM12.398438 16.800781"/>
    <path d="M8.152344 4.832031C8.054688 4.789062 7.945312 4.789062 7.847656 4.832031 7.796875 4.851562 7.753906 4.878906 7.71875 4.917969L7.316406 5.316406C7.160156 5.472656 7.160156 5.726562 7.316406 5.882812 7.394531 5.960938 7.496094 6 7.601562 6L7.601562 7.199219C7.601562 7.421875 7.777344 7.601562 8 7.601562 8.222656 7.601562 8.398438 7.421875 8.398438 7.199219L8.398438 5.199219C8.398438 5.148438 8.390625 5.097656 8.371094 5.046875 8.328125 4.949219 8.25 4.871094 8.152344 4.832031zM11.753906 4.832031C11.65625 4.789062 11.542969 4.789062 11.445312 4.832031 11.398438 4.851562 11.355469 4.878906 11.316406 4.917969L10.917969 5.316406C10.761719 5.472656 10.761719 5.726562 10.917969 5.882812 10.996094 5.960938 11.097656 6 11.199219 6L11.199219 7.199219C11.199219 7.421875 11.378906 7.601562 11.601562 7.601562 11.820312 7.601562 12 7.421875 12 7.199219L12 5.199219C12 5.148438 11.988281 5.097656 11.96875 5.046875 11.929688 4.949219 11.851562 4.871094 11.753906 4.832031zM13.351562 4.832031C13.253906 4.789062 13.144531 4.789062 13.046875 4.832031 12.996094 4.851562 12.953125 4.878906 12.917969 4.917969L12.515625 5.316406C12.359375 5.472656 12.359375 5.726562 12.515625 5.882812 12.59375 5.960938 12.699219 6 12.800781 6L12.800781 7.199219C12.800781 7.421875 12.980469 7.601562 13.199219 7.601562 13.421875 7.601562 13.601562 7.421875 13.601562 7.199219L13.601562 5.199219C13.601562 5.148438 13.589844 5.097656 13.570312 5.046875 13.527344 4.949219 13.449219 4.871094 13.351562 4.832031zM9.71875 6.515625L9.316406 6.917969C9.160156 7.074219 9.160156 7.328125 9.316406 7.484375 9.394531 7.5625 9.496094 7.601562 9.601562 7.601562 9.703125 7.601562 9.804688 7.5625 9.882812 7.484375L10.28125 7.082031C10.4375 6.925781 10.4375 6.671875 10.28125 6.515625 10.125 6.359375 9.875 6.359375 9.71875 6.515625zM9.71875 6.515625"/>
</svg>

<svg xmlns="http://www.w3.org/2000/svg" width="32" height="32" viewBox="0 0 24 24">
    <path d="M21.52 3.2H17.2v-.907A2.294 2.294 0 0 0 14.905 0H3.492A2.296 2.296 0 0 0 1.2 2.293v19.414A2.296 2.296 0 0 0 3.492 24h11.414a2.294 2.294 0 0 0 2.293-2.293v-4.906h4.32c.708 0 1.282-.574 1.282-1.281V4.48c0-.707-.574-1.28-1.281-1.28zm-5.122 18.507c0 .824-.668 1.492-1.492 1.492H3.492C2.672 23.2 2 22.531 2 21.707V2.293C2 1.469 2.672.801 3.492.801h11.414c.824 0 1.492.668 1.492 1.492zM17.2 16V4H18v12zm1.602 0V4h.8v12zM22 15.52a.48.48 0 0 1-.48.48h-1.122V4h1.122a.48.48 0 0 1 .48.48zm0 0"/>
    <path d="M21.602 5.602a.401.401 0 1 1-.802-.005.401.401 0 0 1 .802.005zm0 0M21.602 7.602a.401.401 0 1 1-.802-.005.401.401 0 0 1 .802.005zm0 0M3.2 8.8h12V3.603h-12zM4 4.399h10.398V8H4zm0 0M5.602 2.8a.401.401 0 0 0 0-.8H3.199a.4.4 0 0 0 0 .8zm0 0M3.602 12.398H6.8V9.602H3.6zm.796-2H6v1.204H4.398zm0 0M7.602 12.398H10.8V9.602H7.6zm.796-2H10v1.204H8.398zm0 0M11.602 12.398H14.8V9.602h-3.2zm.796-2H14v1.204h-1.602zm0 0M3.602 15.602H6.8V12.8H3.6zm.796-2H6V14.8H4.398zm0 0M7.602 15.602H10.8V12.8H7.6zm.796-2H10V14.8H8.398zm0 0M11.602 15.602H14.8V12.8h-3.2zm.796-2H14V14.8h-1.602zm0 0M3.602 18.8H6.8V16H3.6zm.796-2H6V18H4.398zm0 0M7.602 18.8H10.8V16H7.6zm.796-2H10V18H8.398zm0 0M3.602 22.398H6.8v-2.796H3.6zm.796-2H6v1.204H4.398zm0 0M7.602 22.398H10.8v-2.796H7.6zm.796-2H10v1.204H8.398zm0 0M11.602 22.398H14.8V16h-3.2zm.796-5.597H14v4.8h-1.602zm0 0"/>
    <path d="M8.152 4.832a.376.376 0 0 0-.304 0 .326.326 0 0 0-.13.086l-.402.398A.4.4 0 0 0 7.602 6v1.2a.398.398 0 1 0 .796 0v-2a.419.419 0 0 0-.027-.153.406.406 0 0 0-.219-.215zm0 0M11.754 4.832a.385.385 0 0 0-.309 0 .392.392 0 0 0-.129.086l-.398.398a.4.4 0 0 0 .281.684v1.2a.401.401 0 0 0 .8 0l.001-2a.425.425 0 0 0-.031-.153.387.387 0 0 0-.215-.215zm0 0M13.352 4.832a.376.376 0 0 0-.305 0 .326.326 0 0 0-.129.086l-.402.398A.4.4 0 0 0 12.8 6v1.2a.401.401 0 1 0 .8 0v-2a.406.406 0 0 0-.25-.367zm0 0M9.719 6.516l-.403.402a.4.4 0 0 0 .567.566l.398-.402a.4.4 0 0 0 0-.566.396.396 0 0 0-.562 0zm0 0"/>
</svg>
